X:1
T:Will You Come? (Reynolds)
T:Isham Emmanuel Reynolds, circa 1920
T:Will You Come? (Reynolds)
T:Public Domain
T:Public Domain
C:Isham Emmanuel Reynolds, circa 1920
Z:Public Domain
%%score ( 1 2 ) ( 3 4 )
L:1/8
M:4/4
K:F
V:1 treble 
V:2 treble 
V:3 bass 
V:4 bass 
V:1
 [FA]3 [FA] [Ec][EB][EG][EB] | [FA]6 C[FA] | [EG]6 C[CG] | [CF]8 x8 | %4
w: 1.~Je- sus waits to wel- come|you, Will you|Will you come?|of|
w: 2.~Je- sus stands at mer- cy’s|door, Will you|Will you come?|don|
w: 3.~Peace and joy you will pos-|sess, Will you|Will you come?|e-|
w: 4.~Man- sions great a- wait His|own, Will you|Will you come?|ones|
 [FA]3 [FA] [Fc][FA][^Fd][FA] | [GB]6 [DA][DA] | [DG]6 [FA][FA] | [EG]8 || %8
w: love out- stretched to you, Will|you come? Will|you come? *||
w: free the Sav- ior gives, Will|you come? Will|you come? Will|you|
w: ter- nal will be yours, Will|you come? Will|you come? *||
w: dear you’ll meet a- gain, Will|you come? Will|you come? *||
"^Refrain" [Fc]3 [FA] [Fc]4 | [Fd]3 [FA] [Fd]4 | [Fd]3 [Fd] [Fc][CA][=B,G][B,F] | (C2 =B,2 C4) | %12
w: ||||
w: come? Will you|come? O the|Sav- ior bids you come; He|will * *|
w: ||||
w: ||||
 [CA]3 [CA] [Fc][FA][^Fd][FA] | [GB]2 [^Fc]2 [GB]2 D[DB] | [FA]6 C[CG] | [CF]8 |] %16
w: ||||
w: come you with words of love,|Will you come? Will you|||
w: ||||
w: ||||
V:2
 x8 | x6 C x | x6 C x | x16 | x8 | x8 | x8 | x8 || x8 | x8 | x8 | G8 | x8 | x6 D x | x6 C x | x8 |] %16
w: |come?|Arms||||||||||||||
w: |come?|Par-|||||||||wel-||come?|||
w: |come?|Life||||||||||||||
w: |come?|Loved||||||||||||||
V:3
 [F,C]3 [F,C] [C,C][C,C][C,B,][C,D] | [F,C]6 [F,A,][F,C] | [C,C]6 [C,B,][C,B,] | %3
 [F,A,]8 [F,C]3 [F,C][F,A,]F,[D,A,][D,D] | [G,D]6 [G,C][G,C] | [G,=B,]6 [G,B,][G,B,] | (C4 B,4) | %7
 [F,A,]3 [F,C] (F,2 E,2) || [D,A,]3 [D,D] (D,2 C,2) | [B,,B,]3 B, [A,C]F,[D,F,][D,F,] | %10
 ([C,E,]2 [D,F,]2 [C,E,]4) | F,3 F, [F,A,]F,[D,A,][D,D] | [G,D]2 [A,D]2 [G,D]2 [G,B,][G,B,] | %13
 [C,C]6 [C,B,][C,B,] | [F,A,]8 | x8 |] %16
V:4
 x8 | x8 | x8 | x13 F, x2 | x8 | x8 | C,8 | x4 A,4 || x4 A,4 | x3 B, F, x3 | x8 | F,3 F, F, x3 | %12
 x8 | x8 | x8 | x8 |] %16

